X:1
T:Wordsworth, 76.76 D
T:Wordsworth, 76.76 D
T:William Henry Monk, 1865
T:Public Domain Courtesy of the Cyber Hymnal™
C:William Henry Monk, 1865
Z:Public Domain
Z:Courtesy of the Cyber Hymnal™
%%score ( 1 2 ) ( 3 4 )
L:1/8
Q:1/4=115
M:4/4
K:E
V:1 treble 
V:2 treble 
V:3 bass 
V:4 bass 
V:1
 [EG]2 | [FB]2 [EG]2 [EA]2 [EG]2 | F4 E2 [B,F]2 | [EG]2 [FB]2 [Ec]2 [Ec]2 | [DB]6 [DB]2 | %5
 [Ee]2 [EB]2 [Ec]2 [EB]2 | A4 [EG]2 [EB]2 | [EA]2 [EG]2 [EF]2 [DF]2 | E6 E2 | %9
 [EA]2 [CA]2 [FB]2 [Ec]2 | =d4 [Ec]2 [Cc]2 | [DB]2 [EB]2 [FA]2 G2 | [DF]6 [DF]2 | %13
 [EG]2 [DB]2 [Ac]2 [Fd]2 | [Ee]4 [EB]2 [EB]2 | [EA]2 [EG]2 [EF]2 [DF]2 | E6 |] %17
V:2
 x2 | x8 | (E2 D2) E2 x2 | x8 | x8 | x8 | E2 F2 x4 | x8 | E6 E2 | x8 | =D2 E2 x4 | x6 (B,C) | x8 | %13
 x8 | x8 | x8 | E6 |] %17
V:3
 [E,B,]2 | [D,B,]2 [E,B,]2 [C,A,]2 [B,,B,]2 | ([A,,C]2 [B,,B,]2) [E,G,]2 [D,B,]2 | %3
 [E,B,]2 [D,F,]2 [C,G,]2 [F,^A,]2 | [B,,B,]6 [A,B,]2 | [G,B,]2 [G,E]2 A,2 [G,B,]2 | %6
 [C,C]2 [D,B,]2 [E,B,]2 [=D,G,]2 | [C,A,]2 [B,,B,]2 [A,,C]2 [B,,B,]2 | [E,G,]6 [E,G,]2 | %9
 [C,A,]2 [F,A,]2 [=D,A,]2 [C,A,]2 | [B,,A,]2 [E,G,]2 [A,,A,]2 [A,,A,]2 | %11
 [B,,A,]2 [C,G,]2 [D,F,]2 (G,A,) | [B,,B,]6 [B,,B,]2 | [E,B,]2 [E,G,]2 [F,A,]2 [B,,A,]2 | %14
 (A,2 G,F,) [E,G,]2 [G,,B,]2 | [A,,C]2 [C,G,]2 [A,,C]2 [B,,B,]2 | [E,G,]6 |] %17
V:4
 x2 | x8 | x8 | x8 | x8 | x4 A,2 x2 | x8 | x8 | x8 | x8 | x8 | x6 E,2 | x8 | x8 | C,4 x4 | x8 | %16
 x6 |] %17

